src/lib/packages/icons/src/assets/filled/bowl-spoon.svg

<svg width="24" height="24" viewBox="0 0 24 24" fill="none" xmlns="http://www.w3.org/2000/svg">
<path d="M20.99 12.1202C20.91 12.7902 20.75 13.4402 20.52 14.0602C20.48 14.1802 20.36 14.2603 20.23 14.2603H3.75C3.62 14.2603 3.51001 14.1802 3.46001 14.0602C3.24001 13.4402 3.08001 12.8002 2.99001 12.1202C2.92001 11.5302 3.39001 11.0002 3.99001 11.0002H19.97C20.57 11.0002 21.04 11.5202 20.97 12.1202H20.99ZM19.12 15.7502H4.87C4.63 15.7502 4.48 16.0302 4.62 16.2202C5.36 17.2602 6.31 18.1302 7.41 18.7802C7.73 18.9602 7.92999 19.2902 7.92999 19.6502V20.0002C7.92999 20.5502 8.37999 21.0002 8.92999 21.0002H15.05C15.6 21.0002 16.05 20.5502 16.05 20.0002V19.6502C16.05 19.2802 16.26 18.9602 16.57 18.7802C17.67 18.1402 18.62 17.2602 19.36 16.2202C19.5 16.0202 19.35 15.7502 19.11 15.7502H19.12ZM21 4.75024H10.1C9.98001 4.10024 9.71 3.57024 9.27 3.18024C8.65 2.63024 7.77 2.41025 6.72 2.54025L5.00999 2.75024C3.57999 2.92024 2.5 4.11025 2.5 5.51025C2.5 6.91025 3.57999 8.10023 5.00999 8.27023L6.71001 8.48025C6.90001 8.50025 7.09 8.51025 7.27 8.51025C8.08 8.51025 8.76 8.28023 9.27 7.83023C9.71 7.44023 9.99001 6.91025 10.1 6.26025H21C21.41 6.26025 21.75 5.92025 21.75 5.51025C21.75 5.10025 21.41 4.76025 21 4.76025V4.75024Z" fill="currentColor"/>
</svg>

<svg xmlns="http://www.w3.org/2000/svg" width="24" height="24" fill="none"><path fill="currentColor" d="M20.99 12.12a8.46 8.46 0 0 1-.47 1.94c-.04.12-.16.2-.29.2H3.75c-.13 0-.24-.08-.29-.2a9.48 9.48 0 0 1-.47-1.94c-.07-.59.4-1.12 1-1.12h15.98c.6 0 1.07.52 1 1.12h.02Zm-1.87 3.63H4.87c-.24 0-.39.28-.25.47a9.104 9.104 0 0 0 2.79 2.56c.32.18.52.51.52.87V20c0 .55.45 1 1 1h6.12c.55 0 1-.45 1-1v-.35c0-.37.21-.69.52-.87 1.1-.64 2.05-1.52 2.79-2.56.14-.2-.01-.47-.25-.47h.01Zm1.88-11H10.1c-.12-.65-.39-1.18-.83-1.57-.62-.55-1.5-.77-2.55-.64l-1.71.21C3.58 2.92 2.5 4.11 2.5 5.51c0 1.4 1.08 2.59 2.51 2.76l1.7.21c.19.02.38.03.56.03.81 0 1.49-.23 2-.68.44-.39.72-.92.83-1.57H21c.41 0 .75-.34.75-.75s-.34-.75-.75-.75v-.01Z"/></svg>
